img/dec/dec-center.svg

<svg width="64" height="88" viewBox="0 0 64 88" fill="none" xmlns="http://www.w3.org/2000/svg">
<path d="M-22.7692 64.3077C-22.7692 66.177 -24.3879 67.6923 -26.3846 67.6923C-28.3813 67.6923 -30 66.177 -30 64.3077C-30 62.4384 -28.3813 60.9231 -26.3846 60.9231C-24.3879 60.9231 -22.7692 62.4384 -22.7692 64.3077Z" fill="#0F2D95"/>
<path d="M-22.7692 84.6154C-22.7692 86.4847 -24.3879 88 -26.3846 88C-28.3813 88 -30 86.4847 -30 84.6154C-30 82.7461 -28.3813 81.2308 -26.3846 81.2308C-24.3879 81.2308 -22.7692 82.7461 -22.7692 84.6154Z" fill="#0F2D95"/>
<path d="M-1.07692 23.6923C-1.07692 25.5616 -2.69559 27.0769 -4.69231 27.0769C-6.68903 27.0769 -8.30769 25.5616 -8.30769 23.6923C-8.30769 21.823 -6.68903 20.3077 -4.69231 20.3077C-2.69559 20.3077 -1.07692 21.823 -1.07692 23.6923Z" fill="#0F2D95"/>
<path d="M-1.07692 44C-1.07692 45.8693 -2.69559 47.3846 -4.69231 47.3846C-6.68903 47.3846 -8.30769 45.8693 -8.30769 44C-8.30769 42.1307 -6.68903 40.6154 -4.69231 40.6154C-2.69559 40.6154 -1.07692 42.1307 -1.07692 44Z" fill="#0F2D95"/>
<path d="M-1.07692 64.3077C-1.07692 66.177 -2.69559 67.6923 -4.69231 67.6923C-6.68903 67.6923 -8.30769 66.177 -8.30769 64.3077C-8.30769 62.4384 -6.68903 60.9231 -4.69231 60.9231C-2.69559 60.9231 -1.07692 62.4384 -1.07692 64.3077Z" fill="#0F2D95"/>
<path d="M-1.07692 84.6154C-1.07692 86.4847 -2.69559 88 -4.69231 88C-6.68903 88 -8.30769 86.4847 -8.30769 84.6154C-8.30769 82.7461 -6.68903 81.2308 -4.69231 81.2308C-2.69559 81.2308 -1.07692 82.7461 -1.07692 84.6154Z" fill="#0F2D95"/>
<path d="M20.6154 23.6923C20.6154 25.5616 18.9967 27.0769 17 27.0769C15.0033 27.0769 13.3846 25.5616 13.3846 23.6923C13.3846 21.823 15.0033 20.3077 17 20.3077C18.9967 20.3077 20.6154 21.823 20.6154 23.6923Z" fill="#0F2D95"/>
<path d="M20.6154 44C20.6154 45.8693 18.9967 47.3846 17 47.3846C15.0033 47.3846 13.3846 45.8693 13.3846 44C13.3846 42.1307 15.0033 40.6154 17 40.6154C18.9967 40.6154 20.6154 42.1307 20.6154 44Z" fill="#0F2D95"/>
<path d="M20.6154 64.3077C20.6154 66.177 18.9967 67.6923 17 67.6923C15.0033 67.6923 13.3846 66.177 13.3846 64.3077C13.3846 62.4384 15.0033 60.9231 17 60.9231C18.9967 60.9231 20.6154 62.4384 20.6154 64.3077Z" fill="#0F2D95"/>
<path d="M20.6154 84.6154C20.6154 86.4847 18.9967 88 17 88C15.0033 88 13.3846 86.4847 13.3846 84.6154C13.3846 82.7461 15.0033 81.2308 17 81.2308C18.9967 81.2308 20.6154 82.7461 20.6154 84.6154Z" fill="#0F2D95"/>
<path d="M42.3077 3.38462C42.3077 5.25389 40.689 6.76923 38.6923 6.76923C36.6956 6.76923 35.0769 5.25389 35.0769 3.38462C35.0769 1.51534 36.6956 0 38.6923 0C40.689 0 42.3077 1.51534 42.3077 3.38462Z" fill="#0F2D95"/>
<path d="M42.3077 23.6923C42.3077 25.5616 40.689 27.0769 38.6923 27.0769C36.6956 27.0769 35.0769 25.5616 35.0769 23.6923C35.0769 21.823 36.6956 20.3077 38.6923 20.3077C40.689 20.3077 42.3077 21.823 42.3077 23.6923Z" fill="#0F2D95"/>
<path d="M42.3077 44C42.3077 45.8693 40.689 47.3846 38.6923 47.3846C36.6956 47.3846 35.0769 45.8693 35.0769 44C35.0769 42.1307 36.6956 40.6154 38.6923 40.6154C40.689 40.6154 42.3077 42.1307 42.3077 44Z" fill="#0F2D95"/>
<path d="M42.3077 64.3077C42.3077 66.177 40.689 67.6923 38.6923 67.6923C36.6956 67.6923 35.0769 66.177 35.0769 64.3077C35.0769 62.4384 36.6956 60.9231 38.6923 60.9231C40.689 60.9231 42.3077 62.4384 42.3077 64.3077Z" fill="#0F2D95"/>
<path d="M42.3077 84.6154C42.3077 86.4847 40.689 88 38.6923 88C36.6956 88 35.0769 86.4847 35.0769 84.6154C35.0769 82.7461 36.6956 81.2308 38.6923 81.2308C40.689 81.2308 42.3077 82.7461 42.3077 84.6154Z" fill="#0F2D95"/>
<path d="M64 3.38462C64 5.25389 62.3813 6.76923 60.3846 6.76923C58.3879 6.76923 56.7692 5.25389 56.7692 3.38462C56.7692 1.51534 58.3879 0 60.3846 0C62.3813 0 64 1.51534 64 3.38462Z" fill="#0F2D95"/>
<path d="M64 23.6923C64 25.5616 62.3813 27.0769 60.3846 27.0769C58.3879 27.0769 56.7692 25.5616 56.7692 23.6923C56.7692 21.823 58.3879 20.3077 60.3846 20.3077C62.3813 20.3077 64 21.823 64 23.6923Z" fill="#0F2D95"/>
<path d="M64 44C64 45.8693 62.3813 47.3846 60.3846 47.3846C58.3879 47.3846 56.7692 45.8693 56.7692 44C56.7692 42.1307 58.3879 40.6154 60.3846 40.6154C62.3813 40.6154 64 42.1307 64 44Z" fill="#0F2D95"/>
<path d="M64 64.3077C64 66.177 62.3813 67.6923 60.3846 67.6923C58.3879 67.6923 56.7692 66.177 56.7692 64.3077C56.7692 62.4384 58.3879 60.9231 60.3846 60.9231C62.3813 60.9231 64 62.4384 64 64.3077Z" fill="#0F2D95"/>
<path d="M64 84.6154C64 86.4847 62.3813 88 60.3846 88C58.3879 88 56.7692 86.4847 56.7692 84.6154C56.7692 82.7461 58.3879 81.2308 60.3846 81.2308C62.3813 81.2308 64 82.7461 64 84.6154Z" fill="#0F2D95"/>
</svg>

<svg width="64" height="88" fill="none" xmlns="http://www.w3.org/2000/svg"><path d="M-22.77 64.308c0 1.869-1.618 3.384-3.615 3.384-1.996 0-3.615-1.515-3.615-3.384 0-1.87 1.619-3.385 3.615-3.385 1.997 0 3.616 1.515 3.616 3.385ZM-22.77 84.615c0 1.87-1.618 3.385-3.615 3.385C-28.38 88-30 86.485-30 84.615c0-1.869 1.619-3.384 3.615-3.384 1.997 0 3.616 1.515 3.616 3.384ZM-1.077 23.692c0 1.87-1.619 3.385-3.615 3.385-1.997 0-3.616-1.515-3.616-3.385 0-1.869 1.619-3.384 3.616-3.384 1.996 0 3.615 1.515 3.615 3.384ZM-1.077 44c0 1.87-1.619 3.385-3.615 3.385-1.997 0-3.616-1.516-3.616-3.385 0-1.87 1.619-3.385 3.616-3.385 1.996 0 3.615 1.516 3.615 3.385ZM-1.077 64.308c0 1.869-1.619 3.384-3.615 3.384-1.997 0-3.616-1.515-3.616-3.384 0-1.87 1.619-3.385 3.616-3.385 1.996 0 3.615 1.515 3.615 3.385ZM-1.077 84.615c0 1.87-1.619 3.385-3.615 3.385-1.997 0-3.616-1.515-3.616-3.385 0-1.869 1.619-3.384 3.616-3.384 1.996 0 3.615 1.515 3.615 3.384ZM20.615 23.692c0 1.87-1.618 3.385-3.615 3.385s-3.615-1.515-3.615-3.385c0-1.869 1.618-3.384 3.615-3.384s3.615 1.515 3.615 3.384ZM20.615 44c0 1.87-1.618 3.385-3.615 3.385S13.385 45.869 13.385 44c0-1.87 1.618-3.385 3.615-3.385s3.615 1.516 3.615 3.385ZM20.615 64.308c0 1.869-1.618 3.384-3.615 3.384s-3.615-1.515-3.615-3.384c0-1.87 1.618-3.385 3.615-3.385s3.615 1.515 3.615 3.385ZM20.615 84.615C20.615 86.485 18.997 88 17 88s-3.615-1.515-3.615-3.385c0-1.869 1.618-3.384 3.615-3.384s3.615 1.515 3.615 3.384ZM42.308 3.385c0 1.869-1.619 3.384-3.616 3.384-1.996 0-3.615-1.515-3.615-3.384 0-1.87 1.619-3.385 3.615-3.385 1.997 0 3.616 1.515 3.616 3.385ZM42.308 23.692c0 1.87-1.619 3.385-3.616 3.385-1.996 0-3.615-1.515-3.615-3.385 0-1.869 1.619-3.384 3.615-3.384 1.997 0 3.616 1.515 3.616 3.384ZM42.308 44c0 1.87-1.619 3.385-3.616 3.385-1.996 0-3.615-1.516-3.615-3.385 0-1.87 1.619-3.385 3.615-3.385 1.997 0 3.616 1.516 3.616 3.385ZM42.308 64.308c0 1.869-1.619 3.384-3.616 3.384-1.996 0-3.615-1.515-3.615-3.384 0-1.87 1.619-3.385 3.615-3.385 1.997 0 3.616 1.515 3.616 3.385ZM42.308 84.615c0 1.87-1.619 3.385-3.616 3.385-1.996 0-3.615-1.515-3.615-3.385 0-1.869 1.619-3.384 3.615-3.384 1.997 0 3.616 1.515 3.616 3.384ZM64 3.385c0 1.869-1.619 3.384-3.615 3.384-1.997 0-3.616-1.515-3.616-3.384C56.77 1.515 58.388 0 60.385 0 62.38 0 64 1.515 64 3.385ZM64 23.692c0 1.87-1.619 3.385-3.615 3.385-1.997 0-3.616-1.515-3.616-3.385 0-1.869 1.619-3.384 3.616-3.384 1.996 0 3.615 1.515 3.615 3.384ZM64 44c0 1.87-1.619 3.385-3.615 3.385-1.997 0-3.616-1.516-3.616-3.385 0-1.87 1.619-3.385 3.616-3.385C62.38 40.615 64 42.131 64 44ZM64 64.308c0 1.869-1.619 3.384-3.615 3.384-1.997 0-3.616-1.515-3.616-3.384 0-1.87 1.619-3.385 3.616-3.385 1.996 0 3.615 1.515 3.615 3.385ZM64 84.615C64 86.485 62.381 88 60.385 88c-1.997 0-3.616-1.515-3.616-3.385 0-1.869 1.619-3.384 3.616-3.384 1.996 0 3.615 1.515 3.615 3.384Z" fill="#0F2D95"/></svg>
